X: 1
T: Braes Of Busby, The
M: 4/4
L: 1/8
R: reel
K: Gmaj
DG G2 (3 Bcd AF | DADF AGFD | G3 B dGBd | cAdc AG G2 |
DG G2 (3 Bcd AF | DEFG AGFD |  G3 B dGBd | cAdc AG G2 |
g2 dB dgbg | f2 cB cfaf | g2 de dGBd | cAdc AGGf |
g2 dB dgbg | f2 cB cfaf | (3 gfe fd ecdB | cAFG AG G2 |
(3 Bcd GB GBdG | (3 ABc FA FAcA | (3 Bcd GB dGBd | cAdc AG G2 |
(3 Bcd GB GBdG | (3 ABc FA dFAd | BGBc dGBd | cAdc AG G2 |
